X: 4836
T: Boys On The Hilltop, The
R: reel
M: 4/4
K: Adorian
~A3c B2AG|E~G3 G2AG|E~A3 BABd|egdB BAGB|
~A3c B2AG|E~G3 G2AB|c2ec B2dB|dBGA B~A3|
A2eA eABA|G2d^c defg|a2eA efga|b2ga b~a3|
A2eA eABA|G2d^c defg|afge fdef|~g3a gedB|

